X:1
T:Intercessor, 11.10.11.10
T:Charles Hubert Hastings Parry, 1904
T:Intercessor, 11.10.11.10
T:Public Domain
C:Charles Hubert Hastings Parry, 1904
Z:Public Domain
%%score ( 1 2 ) ( 3 4 )
L:1/8
M:6/4
K:C
V:1 treble 
V:2 treble 
V:3 bass 
V:4 bass 
V:1
 [EA]2 [DG]2 [CF]2 | [B,E]2 E2 [DF]2 [DA]2 [Cc]2 [Ec]2 | (E3 D) [CA]2 [EA]2 [DG]2 [DF]2 | %3
 C2 z E [CF]2 [CE]2 [A,C]2 [A,D]2 | [B,E]6 [Ee]2 [Gd]2 (EF) | [GB]2 [EG]2 [EA]2 [Dc]2 [DG]2 [CG]2 | %6
 (C2 B,2) [CE]2 [CE]2 [CF]2 [EG]2 | [FA]2 z A [Ec]2 [Ac]2 [AB]2 [^GB]2 x | A6 |] %9
V:2
 x6 | x12 | B4 x8 | E3 C2 x7 | x10 c2 | x12 | F4 x8 | x2 F2 x9 | A6 |] %9
V:3
 [A,,C]2 [B,,B,]2 (C,D,) | [E,^G,]2 [C,A,]2 [D,A,]2 [F,A,]2 A,2 [C,A,]2 | %2
 (A,2 ^G,2) [A,,A,]2 [A,,C]2 [B,,D]2 [A,,B,]2 | [C,G,]3 [C,G,] [A,,F,]2 [C,G,]2 [F,A,]2 [F,A,]2 | %4
 [E,^G,]6 [C,C]2 [G,B,]2 (CD) | [E,E]2 [E,B,]2 [F,A,]2 [F,A,]2 [E,B,]2 [E,C]2 | %6
 [D,D]4 [C,G,]2 [C,G,]2 [A,,C]2 [C,_B,]2 | [F,A,]2 [D,D]2 [C,E]2 [A,,E]2 E,2 z D x | [A,,^C]6 |] %9
V:4
 x4 A,2 | x12 | E,4 x8 | x12 | x10 A,2 | x12 | x12 | x8 E3 E,2 | x6 |] %9

